X:302
T:Grimstock
C:John Playford, 1652
S:Colin Hume's website,  colinhume.com  - chords can also be printed below the stave.
Q:3/8=112
M:6/8
L:1/8
K:G
P:A
|: "G"g2d g2d | "C"e>fg "D7"f2d | "G"B>cd "C"e2d | "Am"cdB "D7"A2G |\
"G"g2d g2d | "C"e>fg "D7"f2d | "G"B>cd "C"e2d | "D7"c>BA "G"G3 :|
P:B
|: "G"GGA "G/F#"BGA | "Em"BGA "G/D"BGD | "G"GGA "G/F#"BGA | "Em"BG "D7"A/B/ "G"G3 :|

